X:118
T:A Dance
O:No 118 Wm Clarke of Feltwell  MS 1858
N:After double barl ine: rest inserted
N:Dotted quavers implied have been put in.
N:Repeat sign added at end
I:abc2nwc
M:2/4
L:1/16
K:D
A2|d3e f3g|a3f d3f|g3e a3g|fgfe d3A|
d3e f3g|a3f d3f|e3f g3e|d4z2:|
|:"^*"z2|B2b2 b2a2|gagf e4|A2a2 a2g2|
(fgfe) d3A|d3e f3g|a3f d3f|e3f g3e|d4z2"^*":|

